Origami/64x64/apps/slack.svg

<svg width="64" height="64" version="1.1" viewBox="0 0 64 64" xmlns="http://www.w3.org/2000/svg">
 <path d="m4.0000404 56.000021v1.999992c0 1.661993 1.3379942 2.999987 2.9999871 2.999987h49.999786c1.661992 0 2.999987-1.337994 2.999987-2.999987v-1.999992c0 1.661993-1.337995 2.999988-2.999987 2.999988h-49.999786c-1.6619929 0-2.9999871-1.337995-2.9999871-2.999988z" style="opacity:.2"/>
 <rect transform="matrix(0,-1,-1,0,0,0)" x="-60" y="-60" width="56" height="56" rx="4.2" ry="4.2" style="opacity:.2"/>
 <rect transform="matrix(.96126169 -.27563736 .27563736 .96126169 0 0)" x="7.26" y="23.08" width="30.182" height="30.182" style="fill:#f4f1ef;stroke-width:2.7999878;stroke:#f4f1ef"/>
 <path d="m5.6980331 19.800139c-0.5790975-8e-4 -1.1385351 0.028-1.6980327 0.036v35.977846c0 0.310798 0.03766 0.610997 0.1012196 0.902396 6.200573-0.552998 12.254747-1.911992 17.551924-7.434768l-8.320564-29.013876c-2.708388-0.306198-5.2535771-0.463598-7.6343669-0.467598z" style="fill:#48c39e"/>
 <path d="m50.66784 40.800049-29.013876 8.320764c-0.924076 3.779984-0.947575 7.332969-0.349998 10.732354h34.495852c0.845836 0 1.628173-0.254799 2.28599-0.680997-0.221699-6.686971-0.820657-13.278943-7.418368-18.372121z" style="fill:#d81768"/>
 <path d="m58.315807 4.8002039c-6.536972 0.6259973-12.587346 1.9447917-15.968731 7.0791691l8.320564 29.013876c3.315185 0.684397 6.402572 0.744797 9.33236 0.369398v-33.115858c0-1.376994-0.666498-2.5817889-1.684353-3.3467856z" style="fill:#ecb524"/>
 <path d="m8.2000223 4.0002074c-0.8401163 0-1.617213 0.2519989-2.2721902 0.6725971 1.3777741 5.3815765 3.9245831 10.560954 7.4045679 15.580532l29.013876-8.320764c1.169014-2.9471871 1.501553-5.5449759 1.326174-7.9323656h-35.473848z" style="fill:#81d2e0"/>
 <path d="m21.653964 49.200013-17.653124 5.061178v1.471194c0 2.32679 1.8731919 4.199982 4.1999819 4.199982h16.531929l-3.078787-10.732354z" style="fill:#390f39"/>
 <path d="m8.2000223 4.0002074c-2.32679 0-4.1999819 1.8731919-4.1999819 4.1999819v14.729937l9.3323596-2.676789-4.6593797-16.25313h-0.473038z" style="fill:#20a48e"/>
 <path d="m40.071885 4.0002074 2.274991 7.9323656 17.439725-4.9981783c-0.537298-1.6999926-2.104791-2.9341873-3.986783-2.9341873h-15.728133z" style="fill:#77971f"/>
 <path d="m59.9998 38.20006-9.33236 2.676789 5.452376 19.020318c2.173191-0.165999 3.879984-1.950192 3.879984-4.167182v-17.529925z" style="fill:#d5100d"/>
 <path d="m7 4c-1.6619929 0-3 1.3380071-3 3v1c0-1.6619929 1.3380071-3 3-3h50c1.661992 0 3 1.3380071 3 3v-1c0-1.6619929-1.338008-3-3-3h-50z" style="fill:#ffffff;opacity:.1"/>
 <path d="m38.96589 36.00007c-2e-5 1.923391-0.633397 3.398185-1.900132 4.424381-1.257514 1.026395-3.115986 1.539593-5.575576 1.539593-1.701332 0-3.180786-0.281999-4.438181-0.845996-1.248274-0.563998-2.26539-1.474794-3.051387-2.732388l3.009587-2.38566c1.293738 1.448202 2.88126 1.962575 4.563101 2.096298 1.063315 0 1.890852-0.179999 2.482589-0.540998 0.600998-0.369798 0.944089-0.528835 0.944109-1.277831-2e-5 -0.425199-0.148972-0.781197-0.361571-1.067996-0.203439-0.286599-0.513178-0.531598-0.929256-0.734997-0.416099-0.212599-1.137315-0.452998-2.163591-0.721197-0.998596-0.268198-2.341955-0.536197-3.229611-0.804396-0.878396-0.277399-1.641233-0.633397-2.28839-1.067996-0.637996-0.434598-1.141895-0.980195-1.511774-1.636592-0.369838-0.656598-0.554777-1.483994-0.554777-2.48279 0-1.821392 0.614877-3.240786 1.844652-4.257782 1.229775-1.026395 3.39141-1.539593 5.6846-1.539593 3.319386 0 5.667976 1.137395 7.04577 3.411985l-2.981987 1.930175c-0.527038-0.813596-1.118815-1.396195-1.775313-1.747593-0.656497-0.351199-1.437793-0.526997-2.34399-0.526997-1.96062 0.02472-3.114664 0.509197-3.465449 2.3386 0 0.619599 0.295878 1.195802 0.887656 1.5286 0.591777 0.323599 2.022956 0.651997 3.493209 0.984796 0.813657 0.212599 1.618094 0.443798 2.41319 0.693397 0.795177 0.240399 1.502534 0.577998 2.121991 1.012596 0.628757 0.434598 1.132675 1.003195 1.511793 1.705792 0.379079 0.702797 0.568638 1.604393 0.568658 2.704589" style="fill:#5a3856"/>
</svg>

<svg xmlns="http://www.w3.org/2000/svg" width="64" height="64" version="1.1" viewBox="0 0 64 64">
 <path style="opacity:0.2" d="m 4.0000404,56.000021 0,1.999992 C 4.0000404,59.662006 5.3380346,61 7.0000275,61 l 49.9997855,0 c 1.661992,0 2.999987,-1.337994 2.999987,-2.999987 l 0,-1.999992 c 0,1.661993 -1.337995,2.999988 -2.999987,2.999988 l -49.9997855,0 c -1.6619929,0 -2.9999871,-1.337995 -2.9999871,-2.999988 z"/>
 <rect style="opacity:0.2" width="56" height="56" x="-60" y="-60" rx="4.2" ry="4.2" transform="matrix(0,-1,-1,0,0,0)"/>
 <rect style="fill:#f4f1ef;stroke:#f4f1ef;stroke-width:2.79998779" width="30.182" height="30.182" x="7.26" y="23.08" transform="matrix(0.96126169,-0.27563736,0.27563736,0.96126169,0,0)"/>
 <path style="fill:#48c39e" d="m 5.6980331,19.800139 c -0.5790975,-8e-4 -1.1385351,0.028 -1.6980327,0.036 l 0,35.977846 c 0,0.310798 0.03766,0.610997 0.1012196,0.902396 6.200573,-0.552998 12.254747,-1.911992 17.551924,-7.434768 L 13.33258,20.267737 C 10.624192,19.961539 8.0790029,19.804139 5.6982131,19.800139 Z"/>
 <path style="fill:#d81768" d="m 50.66784,40.800049 -29.013876,8.320764 c -0.924076,3.779984 -0.947575,7.332969 -0.349998,10.732354 l 34.495852,0 c 0.845836,0 1.628173,-0.254799 2.28599,-0.680997 C 57.864109,52.485199 57.265151,45.893227 50.66744,40.800049 Z"/>
 <path style="fill:#ecb524" d="M 58.315807,4.8002039 C 51.778835,5.4262012 45.728461,6.7449956 42.347076,11.879373 L 50.66764,40.893249 C 53.982825,41.577646 57.070212,41.638046 60,41.262647 L 60,8.1467895 C 60,6.7697955 59.333502,5.5650006 58.315647,4.8000039 Z"/>
 <path style="fill:#81d2e0" d="m 8.2000223,4.0002074 c -0.8401163,0 -1.617213,0.2519989 -2.2721902,0.6725971 C 7.3056062,10.054381 9.8524152,15.233759 13.3324,20.253337 L 42.346276,11.932573 C 43.51529,8.9853859 43.847829,6.3875971 43.67245,4.0002074 l -35.4738477,0 z"/>
 <path style="fill:#390f39" d="m 21.653964,49.200013 -17.6531236,5.061178 0,1.471194 c 0,2.32679 1.8731919,4.199982 4.1999819,4.199982 l 16.5319287,0 -3.078787,-10.732354 z"/>
 <path style="fill:#20a48e" d="m 8.2000223,4.0002074 c -2.32679,0 -4.1999819,1.8731919 -4.1999819,4.1999819 l 0,14.7299367 L 13.3324,20.253337 8.6730203,4.0002074 l -0.473038,0 z"/>
 <path style="fill:#77971f" d="M 40.071885,4.0002074 42.346876,11.932573 59.786601,6.9343947 C 59.249303,5.2344021 57.68181,4.0002074 55.799818,4.0002074 l -15.728133,0 z"/>
 <path style="fill:#d5100d" d="m 59.9998,38.20006 -9.33236,2.676789 5.452376,19.020318 C 58.293007,59.731168 59.9998,57.946975 59.9998,55.729985 l 0,-17.529925 z"/>
 <path style="opacity:0.1;fill:#ffffff" d="M 7 4 C 5.3380071 4 4 5.3380071 4 7 L 4 8 C 4 6.3380071 5.3380071 5 7 5 L 57 5 C 58.661992 5 60 6.3380071 60 8 L 60 7 C 60 5.3380071 58.661992 4 57 4 L 7 4 z"/>
 <path style="fill:#5a3856" d="m 38.96589,36.00007 c -2e-5,1.923391 -0.633397,3.398185 -1.900132,4.424381 -1.257514,1.026395 -3.115986,1.539593 -5.575576,1.539593 -1.701332,0 -3.180786,-0.281999 -4.438181,-0.845996 -1.248274,-0.563998 -2.26539,-1.474794 -3.051387,-2.732388 L 27.010201,36 c 1.293738,1.448202 2.88126,1.962575 4.563101,2.096298 1.063315,0 1.890852,-0.179999 2.482589,-0.540998 C 34.656889,37.185502 34.99998,37.026465 35,36.277469 c -2e-5,-0.425199 -0.148972,-0.781197 -0.361571,-1.067996 -0.203439,-0.286599 -0.513178,-0.531598 -0.929256,-0.734997 -0.416099,-0.212599 -1.137315,-0.452998 -2.163591,-0.721197 -0.998596,-0.268198 -2.341955,-0.536197 -3.229611,-0.804396 -0.878396,-0.277399 -1.641233,-0.633397 -2.28839,-1.067996 -0.637996,-0.434598 -1.141895,-0.980195 -1.511774,-1.636592 -0.369838,-0.656598 -0.554777,-1.483994 -0.554777,-2.48279 0,-1.821392 0.614877,-3.240786 1.844652,-4.257782 1.229775,-1.026395 3.39141,-1.539593 5.6846,-1.539593 3.319386,0 5.667976,1.137395 7.04577,3.411985 L 35.554065,27.30629 C 35.027027,26.492694 34.43525,25.910095 33.778752,25.558697 33.122255,25.207498 32.340959,25.0317 31.434762,25.0317 c -1.96062,0.02472 -3.114664,0.509197 -3.465449,2.3386 0,0.619599 0.295878,1.195802 0.887656,1.5286 0.591777,0.323599 2.022956,0.651997 3.493209,0.984796 0.813657,0.212599 1.618094,0.443798 2.41319,0.693397 0.795177,0.240399 1.502534,0.577998 2.121991,1.012596 0.628757,0.434598 1.132675,1.003195 1.511793,1.705792 0.379079,0.702797 0.568638,1.604393 0.568658,2.704589"/>
</svg>
